assets/icons/qvision/calendar_view_day.svg

<svg xmlns="http://www.w3.org/2000/svg" height="24" viewBox="0 0 24 24" width="24"><path d="M0 0h24v24H0z" fill="none"/><path d="M3 17h18v2H3zm0-7h18v5H3zm0-4h18v2H3z"/></svg>

<svg width="24" height="24" viewBox="0 0 24 24" fill="none" xmlns="http://www.w3.org/2000/svg">
<g clip-path="url(#clip0_147_3979)">
<path d="M3 17H21V19H3V17ZM3 10H21V15H3V10ZM3 6H21V8H3V6Z" fill="#323232"/>
</g>
<defs>
<clipPath id="clip0_147_3979">
<rect width="24" height="24" fill="white"/>
</clipPath>
</defs>
</svg>
